!!!OTL: ACH WENN DOCH MEIN SCHAETZCHEN EIN ROSENSTOCK WAER
!!!ARE: Europa, Mitteleuropa, Deutschland, Hessen, Odenwald
!!!SCT: E0593
!!!YEM: Copyright 1995, estate of Helmut Schaffrath.
**kern
*ICvox
*Ivox
*M3/8
*k[f#c#g#]
*A:
{8e
=1
8.a
16b
8cc#
=2
8.b
16cc#
8dd
=3
8ee
8ee
8dd
=4
4cc#}
{16ee
16ff#
=5
8ee
8cc#
16ee
16ff#
=6
16cc#
16dd
8b}
{8e
=7
8.a
16b
8cc#
=8
8.b
16cc#
8dd
=9
8ee
8ee
8dd
=10
4cc#}
{16dd
16dd
=11
8ee
8cc#
8b
=12
4a}
==
!!!AGN: Liebes - Lied
!!!ONB: ESAC (Essen Associative Code) Database: ERK1
!!!AMT: simple triple
!!!AIN: vox
!!!EED: Helmut Schaffrath
!!!EEV: 1.0
*-
